images/social/wechat@2x.svg

<svg height="30" viewBox="0 0 30 30" width="30" xmlns="http://www.w3.org/2000/svg"><g fill="none" transform="translate(5 7)"><path d="m14.8 5.77204819c-.5693719-3.04792185-3.5543038-5.37204819-7.15105917-5.37204819-4.00347947 0-7.24894083 2.87947381-7.24894083 6.43148476 0 1.60138416.65965811 3.0660714 1.75103626 4.19182804.35039649.361434-.98309475 1.9547886-.55123941 2.2396567.37327323.2462252 2.50254634-.805508 2.92617035-.625807.94572484.4011758 2.00478228.625807 3.12297363.625807.56938209 0 1.12343172-.0582432 1.65499319-.1683809" stroke="#000" stroke-width="1.2"/><path d="m14.5 15.5720489c3.0375661 0 5.5-2.1427761 5.5-4.7860244 0-2.64324835-2.4624339-4.7860245-5.5-4.7860245s-5.5 2.14277615-5.5 4.7860245c0 1.1916787.50050341 2.2816337 1.3285664 3.1193716.2658569.2689631-.74590496 1.4546667-.4182427 1.6666528.2832142.1832298 1.8987608-.5994231 2.2201777-.4656976.7175513.2985371 1.5210916.4656976 2.3694986.4656976z" stroke="#000" stroke-width="1.2" transform="matrix(-1 0 0 1 29 0)"/><g fill="#000"><circle cx="5.5" cy="5" r="1"/><circle cx="12.8" cy="9.8" r="1"/><circle cx="15.8" cy="9.8" r="1"/><circle cx="9.5" cy="5" r="1"/></g></g></svg>

<?xml version="1.0" encoding="UTF-8"?>
<svg width="30px" height="30px" viewBox="0 0 30 30" version="1.1" xmlns="http://www.w3.org/2000/svg" xmlns:xlink="http://www.w3.org/1999/xlink">
    <!-- Generator: Sketch 52.2 (67145) - http://www.bohemiancoding.com/sketch -->
    <title>投资组合/wechat@2x</title>
    <desc>Created with Sketch.</desc>
    <g id="投资组合/wechat" stroke="none" stroke-width="1" fill="none" fill-rule="evenodd">
        <g id="Group" transform="translate(5.000000, 7.000000)" fill-rule="nonzero">
            <path d="M14.8,5.77204819 C14.2306281,2.72412634 11.2456962,0.4 7.64894083,0.4 C3.64546136,0.4 0.4,3.27947381 0.4,6.83148476 C0.4,8.43286892 1.05965811,9.89755616 2.15103626,11.0233128 C2.50143275,11.3847468 1.16794151,12.9781014 1.59979685,13.2629695 C1.97307008,13.5091947 4.10234319,12.4574615 4.5259672,12.6371625 C5.47169204,13.0383383 6.53074948,13.2629695 7.64894083,13.2629695 C8.21832292,13.2629695 8.77237255,13.2047263 9.30393402,13.0945886" id="Path" stroke="#000000" stroke-width="1.2"></path>
            <path d="M14.5,15.5720489 C17.5375661,15.5720489 20,13.4292728 20,10.7860245 C20,8.14277615 17.5375661,6 14.5,6 C11.4624339,6 9,8.14277615 9,10.7860245 C9,11.9777032 9.50050341,13.0676582 10.3285664,13.9053961 C10.5944233,14.1743592 9.58266144,15.3600628 9.9103237,15.5720489 C10.1935379,15.7552787 11.8090845,14.9726258 12.1305014,15.1063513 C12.8480527,15.4048884 13.651593,15.5720489 14.5,15.5720489 Z" id="Oval" stroke="#000000" stroke-width="1.2" transform="translate(14.500000, 10.800000) scale(-1, 1) translate(-14.500000, -10.800000) "></path>
            <circle id="Oval" fill="#000000" cx="5.5" cy="5" r="1"></circle>
            <circle id="Oval" fill="#000000" cx="12.8" cy="9.8" r="1"></circle>
            <circle id="Oval" fill="#000000" cx="15.8" cy="9.8" r="1"></circle>
            <circle id="Oval" fill="#000000" cx="9.5" cy="5" r="1"></circle>
        </g>
    </g>
</svg>
